X: 115
T:The Co
R:jig
Z:1997 by John Chambers <jc@trillian.mit.edu>
M:6/8
L:1/8
Q:3/8=120
K:A 
cB|AEF A2B|cag aec|Bcd cdB|cdB cAF|
|AEF A2B|cag aec|Bcd cdB|cAA A:|
|:ce|f2f f2f|fag fec|e2e e2e|eaf ecA|
|d2e f2g|aec B2e|cAB cdB|cAA A:|
